X:449
T:The West Adam St. Club
R:Schottische
O:Scotland
C:J.McKenzie
P:Highland schottische
B:Kerr's Second p24
B:Kerr's Second p24
Z:Transcription, chords:Mike Long
M:4/4
L:1/8
K:D
"D"(3(DFA) d>F A<FA2|"D"(3(DFA) d>F A<F"A"E2|\
"D"(3(DFA) d>F A<F A>F|"G"(3(GBG) "D"(3(FAF) "A"(3(EFG) "D"F2:|
"D"d>B A<F A<F A2|"D"d>B A>f "G"g>f "A"e2|\
"D"(3(fec) "G"d>A "G"(3(BAG) "D"F2|"G"G<B "D"F<A "A"E<G "D"F2||
"D"d>B A<F A<F A2|"D"d>B A>f "G"g>f "A"e2|\
"D"(3(dfd) "A"(3(cec) "G"(3(BdB) "D"(3(AGF)|\
"G"(3(GBG) "D"(3(FAF) "A"(3(EFG) "D"F2|]
